X:1
T: Sheena Findlay's 70th Birthday
C:Bruce Shawyer
R:Reel
Q:232
K:D
M:4/4
L:1/8
|:"D"D2DF A2D2|"G"G2B2 B4|"G"D2DF A2D2|"A7:ECA,2 A,4|
"D"D2DF A2D2|"G"GAB2 B4|"D"AFD2 "A7"GEC2|"D"D2D2 D4:|
|:"D"Adf2 f2A2|"G"Bdg2 g2B2|"A7"cea2 a2c2|"D"f2d2 d4|
"D"Adf2 f2A2|"G"Bdg2 g4|"D"fdA2 "A7"ecA2|"D"d2d2 d4:|
